X:0140
T:Sukey Bids me.
N:see Samuel Beckett's "Malone Dies" for a great set of words to this
M:C
L:1/8
Q:1/2=104
I: :: ::
Z:Jack Campin * www.campin.me.uk * 2009
K:G
G2DE G2e2|dBAG AFED |G2DE G2e2|dBcA  G4:|
d2Bc d2g2|fafd ege^c|d2Bc d2g2|fae^c d4 |
dgfe dcBA|B2BG AFED |G2DE G2e2|dBcA  G4:|

